src/assets/svgs/s2.svg

<svg width="52" height="52" viewBox="0 0 52 52" fill="none" xmlns="http://www.w3.org/2000/svg">
<path d="M43.3333 6.5H26C24.8083 6.5 23.8333 7.475 23.8333 8.66667V12.155C23.8333 12.155 23.8333 12.155 23.855 12.1767L34.6883 21.9267C36.0533 23.14 36.8333 24.9167 36.8333 26.7583V28.1667H41.1666V32.5H36.8333V36.8333H41.1666V41.1667H36.8333V45.5H43.3333C44.525 45.5 45.5 44.525 45.5 43.3333V8.66667C45.5 7.475 44.525 6.5 43.3333 6.5ZM32.5 15.1667H28.1666V10.8333H32.5V15.1667ZM41.1666 23.8333H36.8333V19.5H41.1666V23.8333ZM41.1666 15.1667H36.8333V10.8333H41.1666V15.1667Z" fill="white"/>
<path d="M32.5 43.3333V26.7583C32.5 26.1517 32.24 25.5667 31.785 25.155L20.9517 15.405C20.54 15.015 20.02 14.8417 19.5 14.8417C18.98 14.8417 18.46 15.0367 18.0483 15.405L7.215 25.155C6.76 25.545 6.5 26.13 6.5 26.7583V43.3333C6.5 44.525 7.475 45.5 8.66667 45.5H13C14.1917 45.5 15.1667 44.525 15.1667 43.3333V34.6667H23.8333V43.3333C23.8333 44.525 24.8083 45.5 26 45.5H30.3333C31.525 45.5 32.5 44.525 32.5 43.3333Z" fill="white"/>
</svg>

<svg width="52" height="52" fill="none" xmlns="http://www.w3.org/2000/svg"><path d="M43.333 6.5H26a2.173 2.173 0 0 0-2.167 2.167v3.488l.022.022 10.833 9.75c1.365 1.213 2.145 2.99 2.145 4.831v1.409h4.334V32.5h-4.334v4.333h4.334v4.334h-4.334V45.5h6.5a2.173 2.173 0 0 0 2.167-2.167V8.667A2.173 2.173 0 0 0 43.333 6.5ZM32.5 15.167h-4.333v-4.334H32.5v4.334Zm8.667 8.666h-4.334V19.5h4.334v4.333Zm0-8.666h-4.334v-4.334h4.334v4.334Z" fill="#fff"/><path d="M32.5 43.333V26.758c0-.606-.26-1.191-.715-1.603l-10.833-9.75a2.082 2.082 0 0 0-1.452-.563c-.52 0-1.04.195-1.452.563l-10.833 9.75a2.1 2.1 0 0 0-.715 1.603v16.575c0 1.192.975 2.167 2.167 2.167H13a2.173 2.173 0 0 0 2.167-2.167v-8.666h8.666v8.666c0 1.192.975 2.167 2.167 2.167h4.333a2.173 2.173 0 0 0 2.167-2.167Z" fill="#fff"/></svg>
